src/actions/24/kstars_cbound.svg

<svg xmlns="http://www.w3.org/2000/svg" viewBox="0 0 24 24">
  <defs id="defs3051">
    <style type="text/css" id="current-color-scheme">
      .ColorScheme-Text {
        color:#2e3440;
      }
      </style>
  </defs><g transform="translate(1,1)">
 <path 
     style="fill:currentColor;fill-opacity:1;stroke:none" 
     d="M 8 3 A 5 5 0 0 1 7.9160156 3.8847656 A 5.0000172 5.0000172 0 0 1 7.8046875 4.3691406 A 5.0000172 5.0000172 0 0 1 7.8046875 4.3710938 A 5.0000172 5.0000172 0 0 1 7.6425781 4.8457031 A 5.0000172 5.0000172 0 0 1 7.6425781 4.8476562 A 5 5 0 0 1 5.0449219 7.5546875 A 5.0000172 5.0000172 0 0 1 4.5898438 7.734375 A 5.0000172 5.0000172 0 0 1 4.5800781 7.7382812 A 5 5 0 0 1 4.5683594 7.7421875 A 5.0000172 5.0000172 0 0 1 4.1132812 7.8691406 A 5.0000172 5.0000172 0 0 1 4.0976562 7.8730469 A 5 5 0 0 1 3 8 L 3 9 A 6.0000172 6.0000172 0 0 0 4.4140625 8.8242188 L 5.3652344 11.675781 C 4.599513 11.887324 3.8039853 11.99821 3 12 L 3 12.662109 C 4.6837004 12.662245 6.3324573 12.247824 7.8007812 11.474609 L 8.4707031 12.527344 L 9.0078125 13.369141 L 9.0078125 13.371094 A 12 12 0 0 0 9.8515625 12.835938 L 9.8476562 12.830078 C 11.92152 11.383472 13.540905 9.29091 14.375 6.7714844 L 16.529297 7.3867188 L 17.269531 7.6347656 C 17.744348 6.1595298 17.997494 4.5541806 18 3 L 17 3 C 16.996288 4.11636 16.845447 5.2622536 16.574219 6.359375 L 8.8808594 4.1601562 A 6.0000172 6.0000172 0 0 0 9 3 L 8 3 z M 8.609375 5.1230469 L 13.417969 6.4980469 C 12.653436 8.7774086 11.18735 10.673338 9.3125 11.990234 L 8.6640625 10.970703 L 8.2402344 10.302734 A 9 9 0 0 1 7.5410156 10.753906 C 7.1463651 10.986022 6.7333735 11.178486 6.3105469 11.347656 L 5.3652344 8.5117188 A 6.0000172 6.0000172 0 0 0 8.609375 5.1230469 z M 12.123047 10.789062 A 12 12 0 0 1 11.441406 11.521484 L 12.892578 12.869141 C 10.278577 15.492106 6.7303016 16.996928 3 17 L 3 18 C 7.0072239 17.993541 10.816243 16.368376 13.617188 13.541016 L 15.826172 15.59375 A 18 18 0 0 1 11.189453 19 L 13.208984 19 A 19 19 0 0 0 16.554688 16.271484 L 16.564453 16.279297 A 19 19 0 0 0 17.246094 15.546875 L 17.240234 15.542969 A 19 19 0 0 0 19 13.246094 L 19 11.207031 A 18 18 0 0 1 16.492188 14.847656 L 14.3125 12.822266 L 13.585938 12.148438 L 12.123047 10.789062 z "
     class="ColorScheme-Text"
     />
</g></svg>

<svg viewBox="0 0 24 24" xmlns="http://www.w3.org/2000/svg">
 <defs>
  <style type="text/css">.ColorScheme-Text {
        color:#2e3440;
      }</style>
 </defs>
 <g transform="translate(1,1)">
  <path class="ColorScheme-Text" d="m8 3a5 5 0 0 1-0.083984 0.88477 5 5 0 0 1-0.11133 0.48438 5 5 0 0 1 0 0.0019532 5 5 0 0 1-0.16211 0.47461 5 5 0 0 1 0 0.0019531 5 5 0 0 1-2.5977 2.707 5 5 0 0 1-0.45508 0.17969 5 5 0 0 1-0.0097657 0.0039062 5 5 0 0 1-0.011719 0.0039063 5 5 0 0 1-0.45508 0.12695 5 5 0 0 1-0.015625 0.0039063 5 5 0 0 1-1.0977 0.12695v1a6 6 0 0 0 1.4141-0.17578l0.95117 2.8516c-0.76572 0.21154-1.5612 0.32243-2.3652 0.32422v0.66211c1.6837 1.36e-4 3.3325-0.41428 4.8008-1.1875l0.66992 1.0527 0.53711 0.8418v0.001953a12 12 0 0 0 0.84375-0.53516l-0.0039063-0.00586c2.0739-1.4466 3.6932-3.5392 4.5273-6.0586l2.1543 0.61523 0.74023 0.24805c0.47482-1.4752 0.72796-3.0806 0.73047-4.6348h-1c-0.003712 1.1164-0.15455 2.2623-0.42578 3.3594l-7.6934-2.1992a6 6 0 0 0 0.11914-1.1602h-1zm0.60938 2.123 4.8086 1.375c-0.76453 2.2794-2.2306 4.1753-4.1055 5.4922l-0.64844-1.0195-0.42383-0.66797a9 9 0 0 1-0.69922 0.45117c-0.39465 0.23212-0.80764 0.42458-1.2305 0.59375l-0.94531-2.8359a6 6 0 0 0 3.2441-3.3887zm3.5137 5.666a12 12 0 0 1-0.68164 0.73242l1.4512 1.3477c-2.614 2.623-6.1623 4.1278-9.8926 4.1309v1c4.0072-0.006459 7.8162-1.6316 10.617-4.459l2.209 2.0527a18 18 0 0 1-4.6367 3.4062h2.0195a19 19 0 0 0 3.3457-2.7285l0.009765 0.007813a19 19 0 0 0 0.68164-0.73242l-0.00586-0.003906a19 19 0 0 0 1.7598-2.2969v-2.0391a18 18 0 0 1-2.5078 3.6406l-2.1797-2.0254-0.72656-0.67383-1.4629-1.3594z" fill="currentColor"/>
 </g>
</svg>
